public/logos/KI.svg

<?xml version="1.0" encoding="UTF-8"?>
<svg xmlns="http://www.w3.org/2000/svg" xmlns:xlink="http://www.w3.org/1999/xlink" width="179pt" height="21.01pt" viewBox="0 0 179 21.01" version="1.1">
<defs>
<clipPath id="clip1">
  <path d="M 5 12 L 11 12 L 11 21.011719 L 5 21.011719 Z M 5 12 "/>
</clipPath>
</defs>
<g id="surface1">
<path style=" stroke:none;fill-rule:nonzero;fill:rgb(16.647339%,23.178101%,41.671753%);fill-opacity:1;" d="M 15.808594 12.207031 C 15.808594 12.207031 12.34375 14.242188 10.609375 15.261719 C 8.835938 14.230469 7.0625 13.199219 5.285156 12.167969 L 5.300781 12.1875 L 10.46875 8.945312 L 15.808594 12.207031 "/>
<path style=" stroke:none;fill-rule:nonzero;fill:rgb(16.647339%,23.178101%,41.671753%);fill-opacity:1;" d="M 10.492188 2.972656 C 11.492188 2.425781 12.492188 1.886719 13.488281 1.328125 C 14.230469 0.910156 14.957031 0.464844 15.753906 -0.00390625 C 17.488281 1.019531 19.199219 2.023438 21.09375 3.136719 C 19.289062 4.203125 17.65625 5.238281 15.957031 6.242188 C 15.757812 6.191406 12.351562 4.109375 10.671875 3.105469 C 10.613281 3.0625 10.550781 3.019531 10.492188 2.972656 "/>
<path style=" stroke:none;fill-rule:nonzero;fill:rgb(16.647339%,23.178101%,41.671753%);fill-opacity:1;" d="M 10.492188 2.972656 C 10.550781 3.019531 10.429688 2.929688 10.492188 2.972656 C 10.460938 3.078125 6.773438 5.316406 5.308594 6.167969 C 3.675781 5.183594 0.136719 3.136719 0 3.097656 C 1.269531 2.335938 2.535156 1.570312 3.808594 0.816406 C 4.273438 0.542969 4.75 0.292969 5.242188 0.015625 C 7.019531 1.019531 8.753906 1.996094 10.492188 2.972656 "/>
<path style=" stroke:none;fill-rule:nonzero;fill:rgb(33.92334%,73.524475%,90.710449%);fill-opacity:1;" d="M 0 3.097656 C 0.136719 3.136719 3.675781 5.183594 5.308594 6.167969 C 5.308594 8.109375 5.308594 10.050781 5.308594 11.992188 C 5.304688 12.058594 5.304688 12.121094 5.300781 12.1875 C 3.554688 11.128906 1.804688 10.066406 0 8.972656 C 0 7.007812 0 5.050781 0 3.097656 "/>
<g clip-path="url(#clip1)" clip-rule="nonzero">
<path style=" stroke:none;fill-rule:nonzero;fill:rgb(33.92334%,73.524475%,90.710449%);fill-opacity:1;" d="M 5.285156 12.167969 C 7.0625 13.199219 8.835938 14.230469 10.609375 15.261719 C 10.609375 17.175781 10.609375 21.011719 10.609375 21.011719 L 5.285156 17.929688 C 5.285156 17.929688 5.285156 14.105469 5.285156 12.167969 "/>
</g>
<path style=" stroke:none;fill-rule:nonzero;fill:rgb(33.92334%,73.524475%,90.710449%);fill-opacity:1;" d="M 10.492188 2.972656 C 12.171875 3.980469 15.957031 6.242188 15.957031 6.242188 L 15.808594 12.207031 C 15.808594 12.207031 12.257812 10.019531 10.46875 8.945312 C 10.46875 7.078125 10.460938 3.078125 10.492188 2.972656 "/>
<path style=" stroke:none;fill-rule:nonzero;fill:rgb(33.92334%,73.524475%,90.710449%);fill-opacity:1;" d="M 179 15.777344 C 178.589844 16.519531 178.285156 17.351562 177.746094 17.992188 C 176.59375 19.363281 174.9375 19.671875 173.246094 19.726562 C 171.980469 19.765625 170.753906 19.464844 169.582031 18.96875 C 169.046875 18.738281 168.691406 18.410156 168.613281 17.78125 C 168.53125 17.082031 168.351562 16.394531 168.1875 15.546875 C 168.539062 15.710938 168.742188 15.785156 168.921875 15.898438 C 170.097656 16.660156 171.386719 17.136719 172.773438 17.214844 C 173.464844 17.253906 174.210938 17.136719 174.863281 16.902344 C 176.726562 16.234375 176.613281 13.417969 175.414062 12.613281 C 174.78125 12.1875 174.070312 11.871094 173.390625 11.519531 C 172.53125 11.074219 171.589844 10.742188 170.816406 10.183594 C 169.160156 8.980469 168.519531 7.300781 168.957031 5.285156 C 169.410156 3.203125 170.796875 2.070312 172.832031 1.652344 C 174.335938 1.34375 175.785156 1.496094 177.1875 2.128906 C 177.367188 2.210938 177.542969 2.304688 177.714844 2.410156 C 177.785156 2.453125 177.832031 2.53125 177.953125 2.667969 C 177.796875 3.328125 177.628906 4.03125 177.472656 4.695312 C 176.46875 4.40625 175.574219 4.136719 174.671875 3.898438 C 174.429688 3.832031 174.160156 3.820312 173.90625 3.84375 C 172.6875 3.945312 171.757812 4.648438 171.523438 5.617188 C 171.28125 6.632812 171.742188 7.519531 172.933594 8.191406 C 173.429688 8.46875 173.96875 8.667969 174.503906 8.867188 C 176.574219 9.640625 178.222656 10.863281 179 13.03125 C 179 13.945312 179 14.859375 179 15.777344 "/>
<path style=" stroke:none;fill-rule:nonzero;fill:rgb(33.92334%,73.524475%,90.710449%);fill-opacity:1;" d="M 133.367188 19.5625 C 132.957031 19.5625 132.703125 19.5625 132.304688 19.5625 C 130.804688 15.097656 129.292969 10.617188 127.789062 6.148438 C 126.289062 10.601562 124.785156 15.074219 123.277344 19.550781 C 122.886719 19.550781 122.609375 19.550781 122.214844 19.550781 C 120.242188 13.726562 118.265625 7.902344 116.25 1.941406 C 117.238281 1.941406 118.066406 1.941406 118.992188 1.941406 C 120.292969 5.785156 121.59375 9.609375 122.894531 13.445312 C 124.164062 9.621094 125.433594 5.8125 126.722656 1.941406 C 127.503906 1.941406 128.226562 1.941406 129.101562 1.941406 C 130.375 5.75 131.660156 9.582031 132.9375 13.402344 C 134.21875 9.617188 135.507812 5.808594 136.816406 1.941406 C 137.648438 1.941406 138.421875 1.941406 139.347656 1.941406 C 137.332031 7.875 135.355469 13.703125 133.367188 19.5625 "/>
<path style=" stroke:none;fill-rule:nonzero;fill:rgb(16.647339%,23.178101%,41.671753%);fill-opacity:1;" d="M 75.246094 2.457031 C 75.796875 2.164062 76.28125 1.902344 76.773438 1.640625 C 77.101562 2.398438 77.144531 7.265625 76.878906 8.136719 C 76.375 8.230469 76.203125 7.824219 75.984375 7.511719 C 75.019531 6.128906 74.078125 4.730469 73.101562 3.355469 C 72.347656 2.296875 71.460938 1.945312 70.28125 2.28125 C 69.15625 2.605469 68.519531 3.429688 68.316406 4.550781 C 68.027344 6.121094 68.484375 7.09375 69.945312 7.757812 C 71.140625 8.300781 72.40625 8.679688 73.621094 9.175781 C 74.414062 9.496094 75.234375 9.796875 75.933594 10.269531 C 78.765625 12.167969 78.519531 16.683594 75.542969 18.339844 C 73.695312 19.367188 71.707031 19.394531 69.703125 19.128906 C 68.78125 19.007812 67.882812 18.6875 66.84375 18.425781 C 66.292969 18.519531 66.070312 19.585938 65.085938 19.28125 C 65.085938 17.066406 65.085938 14.839844 65.085938 12.632812 C 65.710938 12.390625 65.933594 12.808594 66.175781 13.148438 C 67.144531 14.496094 68.09375 15.855469 69.0625 17.199219 C 69.859375 18.3125 71.195312 18.835938 72.429688 18.546875 C 73.707031 18.246094 74.472656 17.4375 74.625 16.226562 C 74.800781 14.832031 74.359375 13.808594 73.132812 13.25 C 71.886719 12.683594 70.554688 12.3125 69.292969 11.785156 C 68.453125 11.4375 67.601562 11.0625 66.867188 10.542969 C 64.121094 8.597656 64.4375 3.847656 67.574219 2.359375 C 69.722656 1.339844 71.886719 1.441406 74.089844 2.058594 C 74.472656 2.164062 74.84375 2.316406 75.246094 2.457031 "/>
<path style=" stroke:none;fill-rule:nonzero;fill:rgb(16.647339%,23.178101%,41.671753%);fill-opacity:1;" d="M 31.316406 18.429688 C 30.734375 18.660156 30.449219 19.539062 29.507812 19.273438 C 29.507812 17.082031 29.507812 14.878906 29.507812 12.652344 C 30.089844 12.359375 30.355469 12.753906 30.621094 13.128906 C 31.464844 14.316406 32.269531 15.539062 33.15625 16.691406 C 33.601562 17.265625 34.132812 17.832031 34.742188 18.210938 C 36.136719 19.074219 38.058594 18.554688 38.769531 17.222656 C 39.601562 15.660156 39.089844 13.925781 37.445312 13.175781 C 36.152344 12.585938 34.769531 12.183594 33.429688 11.683594 C 32.324219 11.273438 31.292969 10.75 30.511719 9.808594 C 28.679688 7.601562 28.960938 2.976562 33.289062 1.855469 C 35.085938 1.390625 36.855469 1.5625 38.613281 2.078125 C 38.96875 2.183594 39.3125 2.320312 39.628906 2.429688 C 40.308594 2.402344 40.65625 1.488281 41.417969 1.820312 C 41.65625 2.828125 41.597656 7.511719 41.339844 8.125 C 40.863281 8.253906 40.695312 7.867188 40.492188 7.578125 C 39.523438 6.199219 38.566406 4.808594 37.605469 3.421875 C 36.855469 2.34375 36.03125 2 34.8125 2.257812 C 33.824219 2.464844 32.941406 3.460938 32.765625 4.558594 C 32.515625 6.140625 32.882812 7.015625 34.332031 7.722656 C 35.457031 8.269531 36.679688 8.609375 37.839844 9.089844 C 38.730469 9.460938 39.660156 9.808594 40.453125 10.339844 C 43.160156 12.160156 42.953125 16.601562 40.136719 18.261719 C 38.253906 19.371094 36.210938 19.402344 34.144531 19.125 C 33.21875 19 32.320312 18.683594 31.316406 18.429688 "/>
<path style=" stroke:none;fill-rule:nonzero;fill:rgb(33.92334%,73.524475%,90.710449%);fill-opacity:1;" d="M 106.578125 9.433594 C 107.640625 9.375 108.667969 9.417969 109.660156 9.238281 C 110.933594 9.007812 111.527344 8.148438 111.535156 6.859375 C 111.539062 5.589844 110.929688 4.667969 109.691406 4.441406 C 108.679688 4.257812 107.621094 4.320312 106.578125 4.277344 C 106.578125 6.058594 106.578125 7.675781 106.578125 9.433594 Z M 108.769531 11.886719 C 107.964844 11.886719 107.285156 11.886719 106.46875 11.886719 C 106.46875 14.367188 106.46875 16.808594 106.46875 19.332031 C 105.527344 19.332031 104.722656 19.332031 103.839844 19.332031 C 103.839844 13.53125 103.839844 7.777344 103.839844 2.035156 C 103.964844 1.972656 104.039062 1.898438 104.117188 1.902344 C 106.253906 1.941406 108.410156 1.835938 110.527344 2.078125 C 112.484375 2.304688 113.953125 4.023438 114.28125 5.949219 C 114.632812 8.015625 113.8125 9.886719 112.085938 10.976562 C 111.898438 11.097656 111.710938 11.214844 111.464844 11.367188 C 113.34375 13.996094 115.195312 16.589844 117.15625 19.335938 C 116.003906 19.335938 115.054688 19.335938 113.980469 19.335938 C 112.277344 16.902344 110.53125 14.402344 108.769531 11.886719 "/>
<path style=" stroke:none;fill-rule:nonzero;fill:rgb(33.92334%,73.524475%,90.710449%);fill-opacity:1;" d="M 87.214844 6.78125 C 86.445312 8.765625 85.722656 10.632812 84.96875 12.578125 C 86.515625 12.578125 87.933594 12.578125 89.457031 12.578125 C 88.699219 10.625 87.984375 8.773438 87.214844 6.78125 Z M 94.996094 19.367188 C 93.964844 19.367188 93.152344 19.367188 92.242188 19.367188 C 91.640625 17.917969 91.042969 16.476562 90.429688 15 C 88.28125 15 86.175781 15 83.992188 15 C 83.398438 16.433594 82.800781 17.875 82.191406 19.355469 C 81.335938 19.355469 80.523438 19.355469 79.511719 19.355469 C 81.929688 13.421875 84.300781 7.597656 86.6875 1.730469 C 87.0625 1.730469 87.386719 1.730469 87.808594 1.730469 C 90.179688 7.542969 92.554688 13.371094 94.996094 19.367188 "/>
<path style=" stroke:none;fill-rule:nonzero;fill:rgb(33.92334%,73.524475%,90.710449%);fill-opacity:1;" d="M 144.195312 12.597656 C 145.753906 12.597656 147.160156 12.597656 148.691406 12.597656 C 147.933594 10.640625 147.214844 8.777344 146.441406 6.785156 C 145.675781 8.769531 144.960938 10.617188 144.195312 12.597656 Z M 145.933594 1.695312 C 146.34375 1.695312 146.625 1.695312 147.023438 1.695312 C 149.398438 7.515625 151.777344 13.351562 154.214844 19.324219 C 153.234375 19.324219 152.40625 19.324219 151.460938 19.324219 C 150.878906 17.925781 150.273438 16.484375 149.65625 15.003906 C 147.511719 15.003906 145.40625 15.003906 143.222656 15.003906 C 142.628906 16.433594 142.027344 17.878906 141.414062 19.359375 C 140.558594 19.359375 139.746094 19.359375 138.742188 19.359375 C 141.164062 13.410156 143.539062 7.574219 145.933594 1.695312 "/>
<path style=" stroke:none;fill-rule:nonzero;fill:rgb(16.647339%,23.178101%,41.671753%);fill-opacity:1;" d="M 44.535156 1.699219 C 47.019531 1.6875 49.328125 1.683594 51.765625 1.703125 C 51.496094 2.8125 50.453125 2.816406 49.976562 3.539062 C 49.976562 7.992188 49.976562 12.53125 49.976562 17.195312 C 50.46875 17.542969 51.019531 17.933594 51.613281 18.355469 C 51.613281 18.644531 51.613281 18.941406 51.613281 19.316406 C 49.292969 19.316406 47.023438 19.316406 44.671875 19.316406 C 44.648438 19.007812 44.625 18.742188 44.597656 18.433594 C 45.15625 18.039062 45.683594 17.660156 46.25 17.253906 C 46.25 12.660156 46.25 8.070312 46.25 3.480469 C 45.867188 2.808594 44.871094 2.773438 44.535156 1.699219 "/>
<path style=" stroke:none;fill-rule:nonzero;fill:rgb(16.647339%,23.178101%,41.671753%);fill-opacity:1;" d="M 57.160156 1.773438 C 58.652344 1.773438 60.054688 1.773438 61.453125 1.773438 C 61.648438 2.375 61.234375 2.507812 60.914062 2.636719 C 58.015625 3.785156 56.21875 6.292969 53.871094 8.191406 C 54.027344 8.460938 54.117188 8.664062 54.246094 8.84375 C 56.050781 11.277344 57.84375 13.71875 59.683594 16.125 C 60.054688 16.605469 60.59375 16.96875 61.09375 17.339844 C 61.59375 17.710938 62.140625 18.023438 62.699219 18.378906 C 62.699219 18.671875 62.699219 18.945312 62.699219 19.304688 C 59.988281 19.304688 57.328125 19.304688 54.683594 19.304688 C 54.246094 18.402344 54.96875 17.949219 55.390625 17.257812 C 53.671875 15.007812 51.933594 12.730469 50.109375 10.34375 C 52.46875 8.152344 54.757812 6.019531 57.046875 3.890625 C 57.085938 3.183594 57.121094 2.507812 57.160156 1.773438 "/>
<path style=" stroke:none;fill-rule:nonzero;fill:rgb(33.92334%,73.524475%,90.710449%);fill-opacity:1;" d="M 165.320312 1.910156 C 166.246094 1.910156 167.0625 1.910156 168.0625 1.910156 C 167.839844 2.285156 167.707031 2.550781 167.542969 2.789062 C 165.742188 5.402344 163.921875 8.003906 162.148438 10.636719 C 161.882812 11.03125 161.707031 11.570312 161.695312 12.050781 C 161.648438 14.136719 161.679688 16.226562 161.671875 18.3125 C 161.667969 18.644531 161.613281 18.976562 161.578125 19.359375 C 160.710938 19.359375 159.925781 19.359375 159.046875 19.359375 C 159.003906 18.964844 158.929688 18.605469 158.929688 18.25 C 158.917969 16.191406 158.949219 14.128906 158.902344 12.070312 C 158.890625 11.59375 158.714844 11.054688 158.445312 10.65625 C 156.613281 7.925781 154.738281 5.222656 152.878906 2.511719 C 152.785156 2.375 152.71875 2.222656 152.570312 1.957031 C 153.582031 1.957031 154.492188 1.957031 155.511719 1.957031 C 157.101562 4.285156 158.726562 6.664062 160.386719 9.09375 C 162.054688 6.664062 163.699219 4.273438 165.320312 1.910156 "/>
<path style=" stroke:none;fill-rule:nonzero;fill:rgb(33.92334%,73.524475%,90.710449%);fill-opacity:1;" d="M 97.539062 1.929688 C 98.382812 1.929688 99.191406 1.929688 99.976562 1.929688 C 100.277344 2.640625 100.320312 18.449219 100.023438 19.355469 C 99.234375 19.355469 98.421875 19.355469 97.625 19.355469 C 97.386719 18.722656 97.300781 3.292969 97.539062 1.929688 "/>
</g>
</svg>

<svg xmlns="http://www.w3.org/2000/svg" width="179pt" height="28.013" viewBox="0 0 179 21.01"><defs><clipPath id="a"><path d="M5 12h6v9.012H5Zm0 0"/></clipPath></defs><path d="m15.809 12.207-5.2 3.055-5.324-3.094.016.02 5.168-3.243zM10.492 2.973c1-.547 2-1.086 2.996-1.645.742-.418 1.469-.863 2.266-1.332 1.734 1.024 3.445 2.027 5.34 3.14-1.805 1.067-3.438 2.102-5.137 3.106-.2-.05-3.605-2.133-5.285-3.137q-.09-.062-.18-.132M10.492 2.973c.059.047-.062-.043 0 0-.031.105-3.719 2.343-5.183 3.195C3.676 5.184.137 3.137 0 3.098 1.27 2.336 2.535 1.57 3.809.816c.464-.273.941-.523 1.433-.8 1.778 1.004 3.512 1.98 5.25 2.957" style="stroke:none;fill-rule:nonzero;fill:#2a3b6a;fill-opacity:1"/><path d="M0 3.098c.137.039 3.676 2.086 5.309 3.07v5.824q-.004.099-.008.195L0 8.974z" style="stroke:none;fill-rule:nonzero;fill:#57bbe7;fill-opacity:1"/><g clip-path="url(#a)"><path d="M5.285 12.168q2.664 1.546 5.324 3.094v5.75L5.285 17.93z" style="stroke:none;fill-rule:nonzero;fill:#57bbe7;fill-opacity:1"/></g><path d="M10.492 2.973c1.68 1.007 5.465 3.27 5.465 3.27l-.148 5.964s-3.551-2.187-5.34-3.262c0-1.867-.008-5.867.023-5.972M179 15.777c-.41.743-.715 1.575-1.254 2.215-1.152 1.371-2.809 1.68-4.5 1.735-1.266.039-2.492-.262-3.664-.758-.535-.23-.89-.559-.969-1.188-.082-.699-.261-1.386-.425-2.234.351.164.554.238.734.351 1.176.762 2.465 1.239 3.851 1.317a5.4 5.4 0 0 0 2.09-.313c1.864-.668 1.75-3.484.551-4.289-.633-.425-1.344-.742-2.023-1.093-.86-.446-1.801-.778-2.575-1.336-1.656-1.204-2.296-2.883-1.859-4.899.453-2.082 1.84-3.215 3.875-3.633 1.504-.308 2.953-.156 4.356.477q.27.123.527.281c.07.043.117.121.238.258-.156.66-.324 1.363-.48 2.027-1.004-.289-1.899-.558-2.801-.797a2.2 2.2 0 0 0-.766-.054c-1.219.101-2.148.804-2.383 1.773-.242 1.016.22 1.903 1.41 2.574.497.278 1.036.477 1.57.676 2.071.774 3.72 1.996 4.497 4.164zM133.367 19.563h-1.062c-1.5-4.465-3.012-8.946-4.516-13.415l-4.512 13.403h-1.062c-1.973-5.824-3.95-11.649-5.965-17.61h2.742c1.301 3.844 2.602 7.668 3.903 11.504 1.27-3.824 2.539-7.632 3.828-11.504h2.379c1.273 3.809 2.558 7.641 3.835 11.461l3.88-11.46h2.53c-2.015 5.933-3.992 11.761-5.98 17.62" style="stroke:none;fill-rule:nonzero;fill:#57bbe7;fill-opacity:1"/><path d="M75.246 2.457c.55-.293 1.035-.555 1.527-.816.329.757.372 5.625.106 6.496-.504.093-.676-.313-.895-.625-.964-1.383-1.906-2.782-2.882-4.157-.754-1.058-1.641-1.41-2.82-1.074-1.126.324-1.762 1.149-1.966 2.27-.289 1.57.168 2.543 1.63 3.207 1.195.543 2.46.922 3.675 1.418.793.32 1.613.62 2.313 1.094 2.832 1.898 2.586 6.414-.391 8.07-1.848 1.027-3.836 1.055-5.84.789-.922-.121-1.82-.442-2.86-.703-.55.094-.773 1.16-1.757.855v-6.648c.625-.242.848.176 1.09.515.969 1.348 1.918 2.707 2.886 4.051.797 1.113 2.133 1.637 3.368 1.348 1.277-.3 2.043-1.11 2.195-2.32.176-1.395-.266-2.418-1.492-2.977-1.246-.566-2.578-.937-3.84-1.465-.84-.348-1.691-.723-2.426-1.242-2.746-1.945-2.43-6.695.707-8.184 2.149-1.02 4.313-.918 6.516-.3.383.105.754.257 1.156.398M31.316 18.43c-.582.23-.867 1.11-1.808.843v-6.62c.582-.294.847.1 1.113.476.844 1.187 1.649 2.41 2.535 3.562.446.575.977 1.141 1.586 1.52 1.395.863 3.317.344 4.028-.988.832-1.563.32-3.297-1.325-4.047-1.293-.59-2.675-.992-4.015-1.492-1.106-.41-2.137-.934-2.918-1.875-1.832-2.207-1.551-6.832 2.777-7.954 1.797-.464 3.566-.292 5.324.223.356.106.7.242 1.016.352.68-.028 1.027-.942 1.789-.61.238 1.008.18 5.692-.078 6.305-.477.129-.645-.258-.848-.547-.969-1.379-1.926-2.77-2.887-4.156-.75-1.078-1.574-1.422-2.792-1.164-.989.207-1.872 1.203-2.047 2.3-.25 1.583.117 2.458 1.566 3.165 1.125.547 2.348.886 3.508 1.367.89.37 1.82.719 2.613 1.25 2.707 1.82 2.5 6.262-.316 7.922-1.883 1.11-3.926 1.14-5.992.863-.926-.125-1.825-.441-2.829-.695" style="stroke:none;fill-rule:nonzero;fill:#2a3b6a;fill-opacity:1"/><path d="M106.578 9.434c1.063-.059 2.09-.016 3.082-.196 1.274-.23 1.867-1.09 1.875-2.379.004-1.27-.605-2.191-1.844-2.418-1.011-.183-2.07-.12-3.113-.164zm2.192 2.453h-2.301v7.445h-2.63V2.035c.126-.062.2-.137.278-.133 2.137.04 4.293-.066 6.41.176 1.957.227 3.426 1.945 3.754 3.871.352 2.067-.469 3.938-2.195 5.028-.188.12-.375.238-.621.39l5.691 7.969h-3.176c-1.703-2.434-3.449-4.934-5.21-7.45M87.215 6.781l-2.246 5.797h4.488c-.758-1.953-1.473-3.805-2.242-5.797m7.781 12.586h-2.754L90.43 15h-6.438c-.594 1.434-1.191 2.875-1.8 4.355h-2.68C81.93 13.422 84.3 7.598 86.688 1.73h1.12a28959 28959 0 0 1 7.188 17.637M144.195 12.598h4.496c-.757-1.957-1.476-3.82-2.25-5.813-.765 1.985-1.48 3.832-2.246 5.813m1.739-10.903h1.09l7.19 17.63h-2.753c-.582-1.4-1.188-2.84-1.805-4.321h-6.433c-.594 1.43-1.196 2.875-1.809 4.355h-2.672c2.422-5.949 4.797-11.785 7.192-17.664" style="stroke:none;fill-rule:nonzero;fill:#57bbe7;fill-opacity:1"/><path d="M44.535 1.7c2.485-.012 4.793-.016 7.23.003-.269 1.11-1.312 1.113-1.788 1.836v13.656l1.636 1.16v.961h-6.941a67 67 0 0 0-.074-.882c.558-.395 1.086-.774 1.652-1.18V3.48c-.383-.671-1.379-.707-1.715-1.78" style="stroke:none;fill-rule:nonzero;fill:#2a3b6a;fill-opacity:1"/><path d="M57.16 1.773h4.293c.195.602-.219.735-.539.864-2.898 1.148-4.695 3.656-7.043 5.554.156.27.246.473.375.653 1.805 2.433 3.598 4.875 5.438 7.281.37.48.91.844 1.41 1.215.5.37 1.047.683 1.605 1.039v.926h-8.015c-.438-.903.285-1.356.707-2.047-1.72-2.25-3.457-4.528-5.282-6.914 2.36-2.192 4.649-4.324 6.938-6.453.039-.707.074-1.383.113-2.118" style="stroke:none;fill-rule:nonzero;fill:#2a3b6a;fill-opacity:1"/><path d="M165.32 1.91h2.743c-.223.375-.356.64-.52.88-1.8 2.612-3.621 5.214-5.395 7.847a2.8 2.8 0 0 0-.453 1.414c-.047 2.086-.015 4.176-.023 6.262-.004.332-.059.664-.094 1.046h-2.531c-.043-.394-.117-.754-.117-1.109-.012-2.059.02-4.121-.028-6.18a2.8 2.8 0 0 0-.457-1.414c-1.832-2.73-3.707-5.433-5.566-8.144-.094-.137-.16-.29-.309-.555h2.942l4.875 7.137c1.668-2.43 3.312-4.82 4.933-7.184M97.54 1.93h2.437c.3.71.343 16.52.046 17.425h-2.398c-.238-.632-.324-16.062-.086-17.425" style="stroke:none;fill-rule:nonzero;fill:#57bbe7;fill-opacity:1"/></svg>
